X:1
T:Ascendens Christus - Handl
T:#
%%score [ 1 2 3 4 ]
L:1/8
Q:1/4=200
M:none
K:F
V:1 treble nm="Soprano"
V:2 treble nm="Alto"
V:3 treble-8 nm="Tenor"
V:4 bass nm="Bass"
V:1
 z16 | z8"^Ascendens Christus" F8 | A8 c4 c4- | c4 e4 e4"^Jacob Handl\n(1550-1591)" (g4- | %4
w: |A-|scen- dens Chri\-|* stus in al\-|
 g2 f2 e2 d2 e4 d4- | d2 c2 c8 =B4) |[M:4/2] c4 c6 B2 A4 | A4 B6 G4 ^F2 | G4 z2 =B4 c2 d4 | %9
w: ||tum; al- le- lu-|ia, al- le- lu-|ia, al- le- lu-|
 f4 e6 d2 c4 | c16 | z4 c4 d4 c4 | f8 d4 z2 A2 | B4 A4 d8 | f4 c4 d4 c4 | f8 f8 | f4 e4 z4 A4 | %17
w: ia, al- le- lu-|ia.|Cap- ti- vam|du- xit, cap-|ti- vam du-|xit, cap- ti- vam|du- xit,|du- xit, cap-|
 B4 A4 d8 | d4 _e4 d8 | c4 (c8 =B4) | c4 c6 c2 d4 | e4 c6 d2 =B4 | c4 z2 c4 c2 B4 | c4 c6 c2 d4 | %24
w: ti- vam du-|xit cap- ti-|vi- ta\- *|tem; al- le- lu-|ia, al- le- lu-|ia, al- le- lu-|ia, al- le- lu-|
 e4 e6 f4 e2 | f8 z8 | z4 c6 B2 d4 | c4 c4 d4 B4 | A4 z4 z2 B4 A2 | c4 B2 d4 c2 e4 | d6 f4 e4 g2 | %31
w: ia, al- le- lu-|ia.|De- dit do-|na ho- mi- ni-|bus, de- dit|do- na, de- dit do-|na, de- dit do-|
 f2 c2 f8 e4 | f4 z2 c4 d2 B4 | A4 c6 c2 =B4 | c4 e6 d4 ^c2 | d4 d4 d4 c4 | %36
w: na ho- mi- ni-|bus; al- le- lu-|ia, al- le- lu-|ia, al- le- lu-|ia, al- le- lu-|
 c4[Q:1/4=198] z2[Q:1/4=195] e4[Q:1/4=190] f4[Q:1/4=187] e2 | %37
w: ia, al- le- lu-|
[Q:1/4=184] f4[Q:1/4=181] z2[Q:1/4=178] c4[Q:1/4=175] d2[Q:1/4=171] B4 |[Q:1/4=170] A16 |] %39
w: ia, al- le- lu-|ia.|
V:2
 B,8 D8 | F4 F8 A4 | A4 (c2 B2 A2 G2 A4) | G4 C4 c8 | c8 c4 B4- | B4 G4 G8 |[M:4/2] G4 A6 G2 E4 | %7
w: A- scen-|dens Chri- stus|in al\- * * * *|turn, a- scen-|dens Chri- stus|* in al-|tum; al- le- lu-|
 F6 F4 E2 D4 | D4 z2 G4 E2 D4 | C4 c6 B2 G4 | A16- | A16 | z8 z4 F4 | G4 F4 B8 | A8 z4 A4 | %15
w: ia, al- le- lu-|ia, al- le- lu-|ia, al- le- lu-|ia.||Cap-|ti- vam du-|xit, cap-|
 B4 A4 d4 A4 | A8 D4 C4 | (D6 E2 F2 G4 ^F2) | G4 B4 (B6 A2) | G4 F4 G8 | G4 G6 A2 A4 | %21
w: ti- vam du- xit|cap- ti- vi-|ta\- * * * *|tem, cap- ti\- *|* vi- ta-|tem; al- le- lu-|
 c4 A6 A2 G4 | A4 z2 A4 A2 G4 | A4 G6 A2 A4 | c4 c4 c4 c4 | A4 A6 G2 B4 | A4 G4 G4 B4 | A8 z4 F4- | %28
w: ia, al- le- lu-|ia, al- le- lu-|ia, al- le- lu-|ia, al- le- lu-|ia. De- dit do-|na ho- mi- ni-|bus, de\-|
 F2 E2 G4 F4 D4 | C4 D4 D2 A2 G4 | B4 F4 A4 G4 | A4 c4 c4 c2 c2 | A4 z2 A4 F2 G4 | F4 A6 A2 G4 | %34
w: * dit do- na ho-|mi- ni- bus, de- dit|do- na, de- dit|do- na ho- mi- ni-|bus; al- le- lu-|ia, al- le- lu-|
 A4 z2 c4 A2 A4 | A4 A6 B2 G4 | A4 z2 c4 A2 c4 | A4 z2 F4 F2 F4 | F16 |] %39
w: ia, al- le- lu-|ia, al- le- lu-|ia, al- le- lu-|ia, al- le- lu-|ia.|
V:3
 z16 | F8 A8 | c4 c8 e4 | e4 (g6 f2 e2 d2 | e2 d2 e2 f2 g8) | f4 e4 d8 | %6
w: |A- scen-|dens Chri- stus|in al\- * * *||tum, in al-|
[M:4/2][K:treble-8] e4 f6 d4 ^c2 | d4 d6 c2 A4 | =B4 z2 d4 c2 _B4 | A4 a6 f4 e2 | f8 z4 c4 | %11
w: tum; al- le- lu-|ia, al- le- lu-|ia, al- le- lu-|ia, al- le- lu-|ia. Cap-|
 d4 c4 f8 | d4 A4 B4 A4 | d8 f4 g4 | c6 F2 f8 | f8 z4 c4 | d4 c4 f8 | f8 d8- | d4 g8 f4 | %19
w: ti- vam du-|xit, cap- ti- vam|du- xit cap-|ti- vi- ta-|tem, cap-|ti- vi- ta-|tern, cap-|* ti- vi-|
 (e4 d2 c2 d8) | c4 e6 e2 ^f4 | g4 =f6 f2 d4 | f4 z2 e4 f2 d4 | e4 e6 e2 ^f4 | g4 g6 a2 g4 | %25
w: ta\- * * *|tem; al- le- lu-|ia, al- le- lu-|ia, al- le- lu-|ia, al- le- lu-|ia, al- le- lu-|
 f8 z4 d4- | d2 c2 _e4 d6 B2 | F4 A4 G4 z2 d2- | d2 c2 e4 d4 f4 | e4 d4 f4 z2 c2 | B4 d4 (c6 B2) | %31
w: ia. De\-|* dit do- na ho-|mi- ni- bus, de\-|* dit do- na ho-|mi- ni- bus, de-|dit do- na *|
 A4 a4 g6 g2 | f8 z8 | z4 e6 f2 d4 | f4 g6 f2 e4 | d4 d4 f4 e4 | f4 z2 g4 f2 g4 | f4 z2 A4 B2 d4 | %38
w: * ho- mi- ni-|bus;|al- le- lu-|ia, al- le- lu-|ia, al- le- lu-|ia, al- le- lu-|ia, al- le- lu-|
 c16 |] %39
w: ia.|
V:4
 z8 B,,8 | D,8 F,4 F,4- | F,4 A,4 A,8 | C8 C4 C,4 | C8 C4 G,4 | B,4 C4 G,8 | %6
w: A-|scen- dens Chri\-|* stus in|al- tum, a-|scen- dens Chri-|stus in al-|
[M:4/2] C4 F,6 G,2 A,4 | D,4 B,,6 C,2 D,4 | G,,4 z2 G,4 A,2 B,4 | F,4 A,6 B,2 C4 | F,16 | z16 | %12
w: tum; al- le- lu-|ia, al- le- lu-|ia, al- le- lu-|ia, al- le- lu-|ia.||
 z4 F,4 G,4 F,4 | (B,2 C2 D2 C2 B,2 A,2 G,4) | F,4 A,4 B,4 A,4 | (D6 C2 B,4) F,4 | z4 A,4 B,4 A,4 | %17
w: Cap- ti- vam|du\- * * * * * *|xit, cap- ti- vam|du\- * * xit,|cap- ti- vam|
 (D6 C2 B,2 G,2 D4) | G,8 B,8 | C4 A,4 G,8 | C,4 C6 A,2 D4 | C4 F,6 D,2 G,4 | F,4 z2 A,4 F,2 B,4 | %23
w: du\- * * * *|xit cap-|ti- vi- ta-|tem; al- le- lu-|ia, al- le- lu-|ia, al- le- lu-|
 A,4 C6 A,2 D4 | C16 | z4 F,6 E,2 G,4 | F,4 C,4 G,4 G,4 | A,4 z2 C4 B,2 D4 | A,4 z2 C4 B,2 D4 | %29
w: ia, al- le- lu-|ia.|De- dit do-|na ho- mi- ni-|bus, de- dit do-|na, de- dit do-|
 A,4 B,6 A,2 C4 | G,4 B,4 A,4 C4 | F,4 F,4 C6 C2 | F,8 z8 | z4 A,6 F,2 G,4 | F,4 C6 D2 A,4 | %35
w: na, de- dit do-|na, de- dit do-|na ho- mi- ni-|bus;|al- le- lu-|ia, al- le- lu-|
 D,4 z2 D4 B,2 C4 | F,4 C6 D2 C4 | F,4 z2 F,4 B,,2 B,4 | F,16 |] %39
w: ia, al- le- lu-|ia, al- le- lu-|ia, al- le- lu-|ia.|

